Icons/rename_me_touchpalx.svg

<svg viewBox="0 0 48 48" xmlns:xlink="http://www.w3.org/1999/xlink">
 <defs>
  <linearGradient id="0">
   <stop stop-opacity="0"/>
   <stop offset="1"/>
  </linearGradient>
  <linearGradient xlink:href="#0" id="1" gradientUnits="userSpaceOnUse" gradientTransform="translate(4e-7,-48)" y1="47" x2="0" y2="1"/>
  <clipPath id="2">
   <g transform="translate(0,-1004.3622)">
    <rect rx="4" y="1005.36" x="1" height="46" width="46" fill="#1890d0"/>
   </g>
  </clipPath>
  <clipPath id="3">
   <g transform="translate(0,-1004.3622)">
    <rect rx="4" y="1005.36" x="1" height="46" width="46" fill="#1890d0"/>
   </g>
  </clipPath>
 </defs>
 <g>
  <g transform="translate(0,-1004.3622)">
   <path d="m 5,1006.3622 c -2.216,0 -4,1.784 -4,4 l 0,37.25 c 0,2.216 1.784,4 4,4 l 38,0 c 2.216,0 4,-1.784 4,-4 l 0,-37.25 c 0,-2.216 -1.784,-4 -4,-4 l -38,0 z m -4,41.5 0,0.5 c 0,2.216 1.784,4 4,4 l 38,0 c 2.216,0 4,-1.784 4,-4 l 0,-0.5 c 0,2.216 -1.784,4 -4,4 l -38,0 c -2.216,0 -4,-1.784 -4,-4 z" opacity="0.02"/>
   <path d="m 1,1047.6122 0,0.25 c 0,2.216 1.784,4 4,4 l 38,0 c 2.216,0 4,-1.784 4,-4 l 0,-0.25 c 0,2.216 -1.784,4 -4,4 l -38,0 c -2.216,0 -4,-1.784 -4,-4 z" opacity="0.05"/>
   <rect width="46" height="46" x="1" y="1005.61" rx="4" opacity="0.1"/>
  </g>
 </g>
 <g>
  <g transform="translate(0,-1004.3622)">
   <rect rx="4" y="1005.36" x="1" height="46" width="46" fill="#3f3c71"/>
  </g>
 </g>
 <g>
  <rect transform="scale(1,-1)" width="46" height="46" x="1" y="-46.998" rx="4" opacity="0.1" fill="url(#1)"/>
 </g>
 <g>
  <g clip-path="url(#2)">
   <g opacity="0.1">
    <g>
     <path d="M 20.785156 29.210938 C 19.902344 28.558594 18.816406 29.902344 19.90625 30.953125 C 27.816406 36.171875 26.9375 33.5625 33.089844 27.472656 C 34.160156 25.8125 32.621094 25.03125 31.332031 26.605469 C 26.058594 32.691406 26.9375 35.300781 20.785156 29.210938 Z M 20.785156 29.210938 "/>
     <path d="M 13.921875 17 C 13.921875 18.105469 13.027344 19 11.921875 19 C 10.816406 19 9.921875 18.105469 9.921875 17 C 9.921875 15.894531 10.816406 15 11.921875 15 C 13.027344 15 13.921875 15.894531 13.921875 17 Z M 13.921875 17 "/>
     <path d="M 23.921875 9 C 19.648438 9 15.835938 10.773438 13.171875 13.5 C 12.167969 14.53125 11.34375 15.726562 10.671875 17 L 13.203125 17 C 13.746094 16.085938 14.382812 15.242188 15.109375 14.5 C 17.449219 12.101562 20.558594 10.6875 23.921875 10.6875 C 27.285156 10.6875 30.394531 12.101562 32.734375 14.5 C 35.074219 16.898438 36.578125 20.25 36.578125 24 C 36.578125 27.75 35.074219 31.101562 32.734375 33.5 C 30.394531 35.898438 27.285156 37.3125 23.921875 37.3125 C 20.558594 37.3125 17.449219 35.898438 15.109375 33.5 C 13.210938 31.554688 11.890625 28.96875 11.453125 26.0625 L 9.078125 26.0625 C 9.519531 29.304688 10.96875 32.242188 13.171875 34.5 C 15.835938 37.226562 19.648438 39 23.921875 39 C 28.195312 39 32.007812 37.226562 34.671875 34.5 C 37.335938 31.773438 38.921875 28.070312 38.921875 24 C 38.921875 19.929688 37.335938 16.226562 34.671875 13.5 C 32.007812 10.773438 28.195312 9 23.921875 9 Z M 23.921875 9 "/>
     <path d="M 21.496094 15 L 21.5 15 C 22.328125 15 23 15.667969 23 16.496094 L 23 23.5 C 23 24.328125 22.328125 24.996094 21.5 24.996094 L 21.496094 24.996094 C 20.667969 24.996094 20 24.328125 20 23.5 L 20 16.496094 C 20 15.667969 20.667969 15 21.496094 15 Z M 21.496094 15 "/>
     <path d="M 25.496094 19 L 25.5 19 C 26.328125 19 27 19.445312 27 20 L 27 24 C 27 24.550781 26.328125 24.996094 25.5 24.996094 L 25.496094 24.996094 C 24.667969 24.996094 24 24.550781 24 24 L 24 20 C 24 19.445312 24.667969 19 25.496094 19 Z M 25.496094 19 "/>
     <path d="M 28.886719 21 L 29.113281 21 C 29.601562 21 29.996094 21.398438 29.996094 21.886719 L 29.996094 24.117188 C 29.996094 24.605469 29.601562 25 29.113281 25 L 28.886719 25 C 28.394531 25 28 24.605469 28 24.117188 L 28 21.886719 C 28 21.398438 28.394531 21 28.886719 21 Z M 28.886719 21 "/>
     <path d="M 32 21 C 32.550781 21 33 21.449219 33 22 L 33 24.003906 C 33 24.554688 32.550781 25 32 25 C 31.449219 25 31 24.554688 31 24.003906 L 31 22 C 31 21.449219 31.449219 21 32 21 Z M 32 21 "/>
     <path d="M 15.375 23.445312 L 15.375 23.441406 C 16.074219 22.996094 16.878906 23.011719 17.175781 23.476562 L 19.335938 26.84375 C 19.636719 27.308594 19.3125 28.046875 18.613281 28.492188 L 18.613281 28.496094 C 17.914062 28.941406 17.109375 28.925781 16.8125 28.460938 L 14.652344 25.09375 C 14.351562 24.632812 14.675781 23.890625 15.375 23.445312 Z M 15.375 23.445312 "/>
    </g>
   </g>
  </g>
 </g>
 <g>
  <g clip-path="url(#3)">
   <g transform="translate(0,-1)">
    <g>
     <path d="M 20.785156 29.210938 C 19.902344 28.558594 18.816406 29.902344 19.90625 30.953125 C 27.816406 36.171875 26.9375 33.5625 33.089844 27.472656 C 34.160156 25.8125 32.621094 25.03125 31.332031 26.605469 C 26.058594 32.691406 26.9375 35.300781 20.785156 29.210938 Z M 20.785156 29.210938 " fill="#e5f5f9"/>
     <path d="M 13.921875 17 C 13.921875 18.105469 13.027344 19 11.921875 19 C 10.816406 19 9.921875 18.105469 9.921875 17 C 9.921875 15.894531 10.816406 15 11.921875 15 C 13.027344 15 13.921875 15.894531 13.921875 17 Z M 13.921875 17 " fill="#eb76b0"/>
     <path d="M 23.921875 9 C 19.648438 9 15.835938 10.773438 13.171875 13.5 C 12.167969 14.53125 11.34375 15.726562 10.671875 17 L 13.203125 17 C 13.746094 16.085938 14.382812 15.242188 15.109375 14.5 C 17.449219 12.101562 20.558594 10.6875 23.921875 10.6875 C 27.285156 10.6875 30.394531 12.101562 32.734375 14.5 C 35.074219 16.898438 36.578125 20.25 36.578125 24 C 36.578125 27.75 35.074219 31.101562 32.734375 33.5 C 30.394531 35.898438 27.285156 37.3125 23.921875 37.3125 C 20.558594 37.3125 17.449219 35.898438 15.109375 33.5 C 13.210938 31.554688 11.890625 28.96875 11.453125 26.0625 L 9.078125 26.0625 C 9.519531 29.304688 10.96875 32.242188 13.171875 34.5 C 15.835938 37.226562 19.648438 39 23.921875 39 C 28.195312 39 32.007812 37.226562 34.671875 34.5 C 37.335938 31.773438 38.921875 28.070312 38.921875 24 C 38.921875 19.929688 37.335938 16.226562 34.671875 13.5 C 32.007812 10.773438 28.195312 9 23.921875 9 Z M 23.921875 9 " fill="#eb76b0"/>
     <path d="M 21.496094 15 L 21.5 15 C 22.328125 15 23 15.667969 23 16.496094 L 23 23.5 C 23 24.328125 22.328125 24.996094 21.5 24.996094 L 21.496094 24.996094 C 20.667969 24.996094 20 24.328125 20 23.5 L 20 16.496094 C 20 15.667969 20.667969 15 21.496094 15 Z M 21.496094 15 " fill="#e5f5f9"/>
     <path d="M 25.496094 19 L 25.5 19 C 26.328125 19 27 19.445312 27 20 L 27 24 C 27 24.550781 26.328125 24.996094 25.5 24.996094 L 25.496094 24.996094 C 24.667969 24.996094 24 24.550781 24 24 L 24 20 C 24 19.445312 24.667969 19 25.496094 19 Z M 25.496094 19 " fill="#e5f5f9"/>
     <path d="M 28.886719 21 L 29.113281 21 C 29.601562 21 29.996094 21.398438 29.996094 21.886719 L 29.996094 24.117188 C 29.996094 24.605469 29.601562 25 29.113281 25 L 28.886719 25 C 28.394531 25 28 24.605469 28 24.117188 L 28 21.886719 C 28 21.398438 28.394531 21 28.886719 21 Z M 28.886719 21 " fill="#e5f5f9"/>
     <path d="M 32 21 C 32.550781 21 33 21.449219 33 22 L 33 24.003906 C 33 24.554688 32.550781 25 32 25 C 31.449219 25 31 24.554688 31 24.003906 L 31 22 C 31 21.449219 31.449219 21 32 21 Z M 32 21 " fill="#e5f5f9"/>
     <path d="M 15.375 23.445312 L 15.375 23.441406 C 16.074219 22.996094 16.878906 23.011719 17.175781 23.476562 L 19.335938 26.84375 C 19.636719 27.308594 19.3125 28.046875 18.613281 28.492188 L 18.613281 28.496094 C 17.914062 28.941406 17.109375 28.925781 16.8125 28.460938 L 14.652344 25.09375 C 14.351562 24.632812 14.675781 23.890625 15.375 23.445312 Z M 15.375 23.445312 " fill="#e5f5f9"/>
    </g>
   </g>
  </g>
 </g>
 <g>
  <g transform="translate(0,-1004.3622)">
   <path d="m 1,1043.3622 0,4 c 0,2.216 1.784,4 4,4 l 38,0 c 2.216,0 4,-1.784 4,-4 l 0,-4 c 0,2.216 -1.784,4 -4,4 l -38,0 c -2.216,0 -4,-1.784 -4,-4 z" opacity="0.1"/>
  </g>
 </g>
</svg>

<svg viewBox="0 0 48 48"><defs><linearGradient id="linearGradient3764" x1="1" x2="47" gradientUnits="userSpaceOnUse" gradientTransform="translate(-48.000001,0.00221467)"><stop stop-color="#373563" stop-opacity="1"/><stop offset="1" stop-color="#3f3c71" stop-opacity="1"/></linearGradient><clipPath id="clipPath-757401457"><g transform="translate(0,-1004.3622)"><rect rx="4" y="1005.36" x="1" height="46" width="46" fill="#1890d0"/></g></clipPath><clipPath id="clipPath-785237768"><g transform="translate(0,-1004.3622)"><rect rx="4" y="1005.36" x="1" height="46" width="46" fill="#1890d0"/></g></clipPath></defs><g><path d="m 1 43 l 0 0.25 c 0 2.216 1.784 4 4 4 l 38 0 c 2.216 0 4 -1.784 4 -4 l 0 -0.25 c 0 2.216 -1.784 4 -4 4 l -38 0 c -2.216 0 -4 -1.784 -4 -4 z m 0 0.5 l 0 0.5 c 0 2.216 1.784 4 4 4 l 38 0 c 2.216 0 4 -1.784 4 -4 l 0 -0.5 c 0 2.216 -1.784 4 -4 4 l -38 0 c -2.216 0 -4 -1.784 -4 -4 z" opacity="0.02"/><path d="m 1 43.25 l 0 0.25 c 0 2.216 1.784 4 4 4 l 38 0 c 2.216 0 4 -1.784 4 -4 l 0 -0.25 c 0 2.216 -1.784 4 -4 4 l -38 0 c -2.216 0 -4 -1.784 -4 -4 z" opacity="0.05"/><path d="m 1 43 l 0 0.25 c 0 2.216 1.784 4 4 4 l 38 0 c 2.216 0 4 -1.784 4 -4 l 0 -0.25 c 0 2.216 -1.784 4 -4 4 l -38 0 c -2.216 0 -4 -1.784 -4 -4 z" opacity="0.1"/></g><g><rect width="46" height="46" x="-47" y="1" rx="4" transform="matrix(0,-1,1,0,0,0)" fill="url(#linearGradient3764)" fill-opacity="1"/></g><g><g clip-path="url(#clipPath-757401457)"><g opacity="0.1"><!-- color: #3f3c71 --><g><path d="m 20.785 29.21 c -0.883 -0.652 -1.969 0.691 -0.879 1.742 c 7.91 5.219 7.03 2.609 13.184 -3.48 c 1.07 -1.66 -0.469 -2.441 -1.758 -0.867 c -5.273 6.086 -4.395 8.695 -10.547 2.605 m 0 0" fill="#000"/><path d="m 13.922 17 c 0 1.105 -0.895 2 -2 2 c -1.105 0 -2 -0.895 -2 -2 c 0 -1.105 0.895 -2 2 -2 c 1.105 0 2 0.895 2 2 m 0 0" fill="#000"/><path d="m 23.922 9 c -4.273 0 -8.09 1.773 -10.75 4.5 c -1 1.031 -1.828 2.227 -2.5 3.5 l 2.531 0 c 0.543 -0.914 1.18 -1.758 1.906 -2.5 c 2.34 -2.398 5.449 -3.813 8.813 -3.813 c 3.363 0 6.473 1.414 8.813 3.813 c 2.34 2.398 3.844 5.75 3.844 9.5 c 0 3.75 -1.504 7.102 -3.844 9.5 c -2.34 2.398 -5.449 3.813 -8.813 3.813 c -3.363 0 -6.473 -1.414 -8.813 -3.813 c -1.898 -1.945 -3.219 -4.531 -3.656 -7.438 l -2.375 0 c 0.441 3.242 1.891 6.18 4.094 8.438 c 2.664 2.727 6.477 4.5 10.75 4.5 c 4.273 0 8.09 -1.773 10.75 -4.5 c 2.664 -2.727 4.25 -6.43 4.25 -10.5 c 0 -4.07 -1.586 -7.773 -4.25 -10.5 c -2.664 -2.727 -6.477 -4.5 -10.75 -4.5 m 0 0" fill="#000"/><path d="m 21.496 15 l 0.004 0 c 0.828 0 1.5 0.668 1.5 1.496 l 0 7 c 0 0.828 -0.672 1.496 -1.5 1.496 l -0.004 0 c -0.828 0 -1.496 -0.668 -1.496 -1.496 l 0 -7 c 0 -0.828 0.668 -1.496 1.496 -1.496 m 0 0" fill="#000"/><path d="m 25.496 19 l 0.004 0 c 0.828 0 1.5 0.445 1.5 1 l 0 4 c 0 0.551 -0.672 0.996 -1.5 0.996 l -0.004 0 c -0.828 0 -1.496 -0.445 -1.496 -0.996 l 0 -4 c 0 -0.555 0.668 -1 1.496 -1 m 0 0" fill="#000"/><path d="m 28.887 21 l 0.227 0 c 0.488 0 0.883 0.398 0.883 0.887 l 0 2.23 c 0 0.488 -0.395 0.883 -0.883 0.883 l -0.227 0 c -0.492 0 -0.887 -0.395 -0.887 -0.883 l 0 -2.23 c 0 -0.488 0.395 -0.887 0.887 -0.887 m 0 0" fill="#000"/><path d="m 32 21 c 0.551 0 1 0.449 1 1 l 0 2 c 0 0.551 -0.449 0.996 -1 0.996 c -0.551 0 -1 -0.445 -1 -0.996 l 0 -2 c 0 -0.551 0.449 -1 1 -1 m 0 0" fill="#000"/><path d="m 15.375 23.445 l 0 -0.004 c 0.699 -0.445 1.504 -0.43 1.801 0.035 l 2.16 3.367 c 0.301 0.465 -0.023 1.203 -0.723 1.648 l 0 0.004 c -0.699 0.445 -1.504 0.43 -1.801 -0.035 l -2.16 -3.367 c -0.301 -0.461 0.023 -1.203 0.723 -1.648 m 0 0" fill="#000"/></g></g></g></g><g><g clip-path="url(#clipPath-785237768)"><g transform="translate(0,-1)"><!-- color: #3f3c71 --><g><path d="m 20.785 29.21 c -0.883 -0.652 -1.969 0.691 -0.879 1.742 c 7.91 5.219 7.03 2.609 13.184 -3.48 c 1.07 -1.66 -0.469 -2.441 -1.758 -0.867 c -5.273 6.086 -4.395 8.695 -10.547 2.605 m 0 0" fill="#e5f5f9"/><path d="m 13.922 17 c 0 1.105 -0.895 2 -2 2 c -1.105 0 -2 -0.895 -2 -2 c 0 -1.105 0.895 -2 2 -2 c 1.105 0 2 0.895 2 2 m 0 0" fill="#eb76b0"/><path d="m 23.922 9 c -4.273 0 -8.09 1.773 -10.75 4.5 c -1 1.031 -1.828 2.227 -2.5 3.5 l 2.531 0 c 0.543 -0.914 1.18 -1.758 1.906 -2.5 c 2.34 -2.398 5.449 -3.813 8.813 -3.813 c 3.363 0 6.473 1.414 8.813 3.813 c 2.34 2.398 3.844 5.75 3.844 9.5 c 0 3.75 -1.504 7.102 -3.844 9.5 c -2.34 2.398 -5.449 3.813 -8.813 3.813 c -3.363 0 -6.473 -1.414 -8.813 -3.813 c -1.898 -1.945 -3.219 -4.531 -3.656 -7.438 l -2.375 0 c 0.441 3.242 1.891 6.18 4.094 8.438 c 2.664 2.727 6.477 4.5 10.75 4.5 c 4.273 0 8.09 -1.773 10.75 -4.5 c 2.664 -2.727 4.25 -6.43 4.25 -10.5 c 0 -4.07 -1.586 -7.773 -4.25 -10.5 c -2.664 -2.727 -6.477 -4.5 -10.75 -4.5 m 0 0" fill="#eb76b0"/><path d="m 21.496 15 l 0.004 0 c 0.828 0 1.5 0.668 1.5 1.496 l 0 7 c 0 0.828 -0.672 1.496 -1.5 1.496 l -0.004 0 c -0.828 0 -1.496 -0.668 -1.496 -1.496 l 0 -7 c 0 -0.828 0.668 -1.496 1.496 -1.496 m 0 0" fill="#e5f5f9"/><path d="m 25.496 19 l 0.004 0 c 0.828 0 1.5 0.445 1.5 1 l 0 4 c 0 0.551 -0.672 0.996 -1.5 0.996 l -0.004 0 c -0.828 0 -1.496 -0.445 -1.496 -0.996 l 0 -4 c 0 -0.555 0.668 -1 1.496 -1 m 0 0" fill="#e5f5f9"/><path d="m 28.887 21 l 0.227 0 c 0.488 0 0.883 0.398 0.883 0.887 l 0 2.23 c 0 0.488 -0.395 0.883 -0.883 0.883 l -0.227 0 c -0.492 0 -0.887 -0.395 -0.887 -0.883 l 0 -2.23 c 0 -0.488 0.395 -0.887 0.887 -0.887 m 0 0" fill="#e5f5f9"/><path d="m 32 21 c 0.551 0 1 0.449 1 1 l 0 2 c 0 0.551 -0.449 0.996 -1 0.996 c -0.551 0 -1 -0.445 -1 -0.996 l 0 -2 c 0 -0.551 0.449 -1 1 -1 m 0 0" fill="#e5f5f9"/><path d="m 15.375 23.445 l 0 -0.004 c 0.699 -0.445 1.504 -0.43 1.801 0.035 l 2.16 3.367 c 0.301 0.465 -0.023 1.203 -0.723 1.648 l 0 0.004 c -0.699 0.445 -1.504 0.43 -1.801 -0.035 l -2.16 -3.367 c -0.301 -0.461 0.023 -1.203 0.723 -1.648 m 0 0" fill="#e5f5f9"/></g></g></g></g><g><g transform="translate(0,-1004.3622)"><path d="m 1 1043.36 0 4 c 0 2.216 1.784 4 4 4 l 38 0 c 2.216 0 4 -1.784 4 -4 l 0 -4 c 0 2.216 -1.784 4 -4 4 l -38 0 c -2.216 0 -4 -1.784 -4 -4 z" opacity="0.1"/></g></g></svg>
